X:1
T:Title
%%score 1 { 2 | 3 }
L:1/8
Q:1/4=105
M:4/4
K:G
V:1 treble nm="Grand Piano, Soprano"
V:2 bass nm="Choir Pad, Come Over on the Sunny Side"
V:3 bass 
V:1
 DD [B,G]2 [B,G]2 [CE]2 | [B,D]2 [B,G]2 [B,G]2 [DB]2- | [DB][Gd][Gd][Gd] [GB][GB] G2 | %3
w: By~A.~A.~Baldwin * * * *|||
 [GB]2 [FA]6 | [CD][CD] [B,G]2 [B,G]2 [CE]2 | [B,D]2 [B,G]2 [B,G]2 [DB]2- | %6
w: |||
 [DB][Gd][Gd][Gd] [GB][GB] G2 | [FA]2 [DG]6 | [Bd]2 [Bd]4 [GB]2 | [ce]2 [Bd]4 [GB]2- | %10
w: ||||
 [GB]2 GG GG [Gd]2 | [GB]2 [FA]6 | [CD][CD] [B,G]2 [DG]2 [GB]2 | [DG]2 [DA]2 [GB]2 [Gc]2 | %14
w: ||||
 [G^c]2 [Gd][Gd] [Gd][Gd][GB][FA]- | [FA]2 [DG]6- | [DG]2 z2 z4 |] %17
w: |||
V:2
 D,D, D,2 D,2 G,2 | G,2 D,2 D,2 G,2- | G,B,B,B,[K:treble] DD D2 | D2 D6 | F,F, G,2 G,2 G,2 | %5
 G,2 D,2 D,2 G,2- | G,B,B,B,[K:treble] DD B,2 | C2 B,6 | z4 D2 D2 | D2 z2 D2 D2 | D2 DD DD B,2 | %11
 D2 D6 | F,F, G,2 B,2 D2 | B,2[K:treble] C2 D2 C2 | _B,2 =B,[K:bass]B, B,B,DC- | C2 B,6- | %16
 B,2 z2 z4 |] %17
V:3
 z2 G,,2 G,,2 G,,2 | G,,2 G,,2 G,,2 G,,2- | G,,G,G,G, G,G, B,2 | G,2 D,6 | D,D, G,,2 G,,2 G,,2 | %5
 G,,2 G,,2 G,,2 G,,2- | G,,G,G,G, G,G, D,2 | D,2 G,,6 | z4 G,2 G,2 | G,2 z2 G,2 G,2 | %10
 G,2 B,B, B,B, G,2 | G,2 D,6 | D,D, G,,2 G,,2 G,2 | G,2 F,2 =F,2 E,2 | ^D,2 =D,D, D,D,D,D,- | %15
 D,2 G,,6- | G,,2 z2 z4 |] %17

